Numix-GalliumOS/16/actions/edit-table-cell-split.svg

<svg xmlns="http://www.w3.org/2000/svg" viewBox="0 0 16 16">
 <path d="m 1 2 0 13 13 0 0 -13 z m 1 1 c 3.667 0 7.333 0 11 0 0 3.667 0 7.333 0 11 c -3.667 0 -7.333 0 -11 0 0 -3.667 0 -7.333 0 -11" style="fill:#888"/>
 <path d="m 7 1 l 0 2 l 1 0 l 0 -2 l -1 0 z m 0 3 l 0 1 l 1 0 l 0 -1 l -1 0 z m 0 2 l 0 1 l 1 0 l 0 -1 l -1 0 z m 0 2 l 0 1 l 1 0 l 0 -1 l -1 0 z m 0 2 l 0 1 l 1 0 l 0 -1 l -1 0 z m 0 2 l 0 1 l 1 0 l 0 -1 l -1 0 z m 0 2 l 0 2 l 1 0 l 0 -2 l -1 0 z" style="fill:#268bd2;opacity:1;fill-opacity:1;stroke:none"/>
</svg>

<?xml version="1.0" encoding="UTF-8" standalone="no"?>
<svg
   xmlns:dc="http://purl.org/dc/elements/1.1/"
   xmlns:cc="http://creativecommons.org/ns#"
   xmlns:rdf="http://www.w3.org/1999/02/22-rdf-syntax-ns#"
   xmlns:svg="http://www.w3.org/2000/svg"
   xmlns="http://www.w3.org/2000/svg"
   xmlns:sodipodi="http://sodipodi.sourceforge.net/DTD/sodipodi-0.dtd"
   xmlns:inkscape="http://www.inkscape.org/namespaces/inkscape"
   width="16"
   height="16"
   viewBox="0 0 16 16"
   id="svg2"
   version="1.1"
   inkscape:version="0.91 r13725"
   sodipodi:docname="edit-table-cell-split6.svg">
  <metadata
     id="metadata18">
    <rdf:RDF>
      <cc:Work
         rdf:about="">
        <dc:format>image/svg+xml</dc:format>
        <dc:type
           rdf:resource="http://purl.org/dc/dcmitype/StillImage" />
        <dc:title></dc:title>
      </cc:Work>
    </rdf:RDF>
  </metadata>
  <defs
     id="defs16" />
  <sodipodi:namedview
     pagecolor="#ffffff"
     bordercolor="#666666"
     borderopacity="1"
     objecttolerance="10"
     gridtolerance="10"
     guidetolerance="10"
     inkscape:pageopacity="0"
     inkscape:pageshadow="2"
     inkscape:window-width="1366"
     inkscape:window-height="704"
     id="namedview14"
     showgrid="false"
     inkscape:zoom="32"
     inkscape:cx="4.9849398"
     inkscape:cy="7.1714573"
     inkscape:window-x="0"
     inkscape:window-y="27"
     inkscape:window-maximized="1"
     inkscape:current-layer="svg2"
     inkscape:object-nodes="true"
     inkscape:object-paths="true"
     inkscape:snap-intersection-paths="true">
    <inkscape:grid
       type="xygrid"
       id="grid4146" />
  </sodipodi:namedview>
  <path
     style="fill:#888888"
     d="m 1,2 0,13 13,0 0,-13 z m 1,1 c 3.6666667,0 7.3333333,0 11,0 0,3.6666667 0,7.333333 0,11 C 9.3333333,14 5.6666667,14 2,14 2,10.333333 2,6.6666667 2,3 Z"
     id="path6"
     inkscape:connector-curvature="0"
     sodipodi:nodetypes="cccccccccc" />
  <path
     style="opacity:1;fill:#268bd2;fill-opacity:1;stroke:none;stroke-width:4;stroke-linecap:round;stroke-linejoin:round;stroke-miterlimit:4;stroke-dasharray:none;stroke-opacity:1"
     d="M 7 1 L 7 3 L 8 3 L 8 1 L 7 1 z M 7 4 L 7 5 L 8 5 L 8 4 L 7 4 z M 7 6 L 7 7 L 8 7 L 8 6 L 7 6 z M 7 8 L 7 9 L 8 9 L 8 8 L 7 8 z M 7 10 L 7 11 L 8 11 L 8 10 L 7 10 z M 7 12 L 7 13 L 8 13 L 8 12 L 7 12 z M 7 14 L 7 16 L 8 16 L 8 14 L 7 14 z "
     id="rect4176" />
</svg>
